rospo-icon-theme-classic-common/22x22/apps/aegisub.svg

<svg height="22" width="22" xmlns="http://www.w3.org/2000/svg"><path d="m6.3150028 1.8111193a2.386832 2.4086047 10.871574 0 0 -.9251243.9102332l-4.0679285 7.0917561a2.386832 2.4086047 10.871574 0 0 -.004 2.4080684l4.044537 7.078415a2.386832 2.4086047 10.871574 0 0 2.0657231 1.200405l8.1123079-.01361a2.386832 2.4086047 10.871574 0 0 2.069734-1.207425l4.067823-7.091939a2.386832 2.4086047 10.871574 0 0  .0039-2.4080684l-4.044437-7.0784206a2.386832 2.4086047 10.871574 0 0 -2.065918-1.200536l-8.1122034.0137985a2.386832 2.4086047 10.871574 0 0 -1.1447903.2972984z" opacity=".2"/><path d="m6.3150028 1.3111195a2.386832 2.4086047 10.871574 0 0 -.9251243.9102332l-4.0679285 7.0917549a2.386832 2.4086047 10.871574 0 0 -.004 2.4080684l4.044537 7.078415a2.386832 2.4086047 10.871574 0 0 2.0657231 1.200405l8.1123079-.01361a2.386832 2.4086047 10.871574 0 0 2.069734-1.207425l4.067823-7.091939a2.386832 2.4086047 10.871574 0 0  .0039-2.4080684l-4.044437-7.0784194a2.386832 2.4086047 10.871574 0 0 -2.065918-1.20053601l-8.1122034.01379851a2.386832 2.4086047 10.871574 0 0 -1.1447903.2972984z" fill="#ff4141"/><path d="m6.6787099 1.1503853a2.386832 2.4086047 10.871574 0 0 -.3642581.1611329 2.386832 2.4086047 10.871574 0 0 -.9248048.9101564l-4.0673839 7.091799a2.386832 2.4086047 10.871574 0 0 -.00391 2.4072274l4.0439499 7.079103a2.386832 2.4086047 10.871574 0 0 2.0654306 1.200196l8.1123064-.01367a2.386832 2.4086047 10.871574 0 0 1.634766-.657227z" opacity=".2"/><path d="m16.47754 1.1826119-10.4775413 18.1464891s-.067045.103508-.082031.125977a2.386832 2.4086047 10.871574 0 0 1.5097659.544922l8.1123064-.01367a2.386832 2.4086047 10.871574 0 0 2.070313-1.207031l4.067384-7.091801a2.386832 2.4086047 10.871574 0 0  .0039-2.4082044l-4.04394-7.0791034a2.386832 2.4086047 10.871574 0 0 -1.160157-1.0175783z" opacity=".2"/><path d="m1.0507812 11a2.386832 2.4086047 10.871574 0 0  .2675782.720703l4.0449218 7.078125a2.386832 2.4086047 10.871574 0 0  .00977.01563c.1001127.171866.2202285.328184.3554687.466797a2.386832 2.4086047 10.871574 0 0  .03125.03125c.1387343.136988.2927216.257021.4589844.355469a2.386832 2.4086047 10.871574 0 0  .041016.02344c.1652711.09345.3414337.167108.5253906.21875a2.386832 2.4086047 10.871574 0 0  .033203.0098c.1963577.05201.4008448.08042.609375.08008l8.1132821-.01367c.203256-.000286.401769-.03004.59375-.08008a2.386832 2.4086047 10.871574 0 0  .05273-.01367c.186924-.05337.365514-.128241.533203-.224609a2.386832 2.4086047 10.871574 0 0  .03125-.01953c.164233-.0978.317477-.214388.455078-.34961a2.386832 2.4086047 10.871574 0 0  .0293-.02734c.139586-.141845.26236-.303816.365234-.480468a2.386832 2.4086047 10.871574 0 0  .0078-.01172l4.068368-7.091847a2.386832 2.4086047 10.871574 0 0  .263672-.6875z" opacity=".2"/><path d="m11.5 6.4999957c-4.21875 0-7.5 3.5000019-7.5 4.5820343 0 1.417969 3.28125 4.41797 7.5 4.41797s7.5-3.500001 7.5-4.41797c0-1.0820324-3.28125-4.5820343-7.5-4.5820343z" opacity=".2"/><path d="m11.5 5.9999959c-4.21875 0-7.5 3.5000007-7.5 4.5820331 0 1.417969 3.28125 4.41797 7.5 4.41797s7.5-3.500001 7.5-4.41797c0-1.0820324-3.28125-4.5820331-7.5-4.5820331z" fill="#fff"/><circle cx="11.5" cy="10.5" fill="#1b87e6" r="3.5"/><circle cx="11.5" cy="10.5" fill="#3f3f3f" r="1.5"/><path d="m15.572266.99999959-8.1132816.01367191a2.386832 2.4086047 10.871574 0 0 -1.1445313.296875 2.386832 2.4086047 10.871574 0 0 -.9238281.9101562l-4.0683594 7.0917969a2.386832 2.4086047 10.871574 0 0 -.3066406 1.4609384 2.386832 2.4086047 10.871574 0 1  .3066406-.9609384l4.0683594-7.0917969a2.386832 2.4086047 10.871574 0 1  .9238281-.9101562 2.386832 2.4086047 10.871574 0 1 1.1445313-.296875l8.1132816-.013672a2.386832 2.4086047 10.871574 0 1 2.064453 1.2011719l4.044922 7.0781251a2.386832 2.4086047 10.871574 0 1  .302734.9472655 2.386832 2.4086047 10.871574 0 0 -.302734-1.4472654l-4.044922-7.0781251a2.386832 2.4086047 10.871574 0 0 -2.064453-1.20117191z" fill="#fff" opacity=".2"/></svg>

<svg xmlns="http://www.w3.org/2000/svg" width="22" height="22" version="1">
 <path style="opacity:0.2" d="M 6.3150028,1.8111193 A 2.386832,2.4086047 10.871574 0 0 5.3898785,2.7213525 L 1.32195,9.8131086 a 2.386832,2.4086047 10.871574 0 0 -0.004,2.4080684 l 4.044537,7.078415 a 2.386832,2.4086047 10.871574 0 0 2.0657231,1.200405 l 8.1123079,-0.01361 a 2.386832,2.4086047 10.871574 0 0 2.069734,-1.207425 l 4.067823,-7.091939 a 2.386832,2.4086047 10.871574 0 0 0.0039,-2.4080684 L 17.637538,2.700534 A 2.386832,2.4086047 10.871574 0 0 15.57162,1.499998 L 7.4594166,1.5137965 A 2.386832,2.4086047 10.871574 0 0 6.3146263,1.8110949 Z"/>
 <path style="fill:#ff4141" d="M 6.3150028,1.3111195 A 2.386832,2.4086047 10.871574 0 0 5.3898785,2.2213527 L 1.32195,9.3131076 a 2.386832,2.4086047 10.871574 0 0 -0.004,2.4080684 l 4.044537,7.078415 a 2.386832,2.4086047 10.871574 0 0 2.0657231,1.200405 l 8.1123079,-0.01361 a 2.386832,2.4086047 10.871574 0 0 2.069734,-1.207425 l 4.067823,-7.091939 a 2.386832,2.4086047 10.871574 0 0 0.0039,-2.4080684 L 17.637538,2.2005342 A 2.386832,2.4086047 10.871574 0 0 15.57162,0.99999819 L 7.4594166,1.0137967 A 2.386832,2.4086047 10.871574 0 0 6.3146263,1.3110951 Z"/>
 <path style="opacity:0.2" d="M 6.6787099,1.1503853 A 2.386832,2.4086047 10.871574 0 0 6.3144518,1.3115182 2.386832,2.4086047 10.871574 0 0 5.389647,2.2216746 l -4.0673839,7.091799 a 2.386832,2.4086047 10.871574 0 0 -0.00391,2.4072274 L 5.362303,18.799804 A 2.386832,2.4086047 10.871574 0 0 7.4277336,20 L 15.54004,19.98633 a 2.386832,2.4086047 10.871574 0 0 1.634766,-0.657227 L 6.6787099,1.1503853 Z"/>
 <path style="opacity:0.2" d="M 16.47754,1.1826119 5.9999987,19.329101 c 0,0 -0.067045,0.103508 -0.082031,0.125977 A 2.386832,2.4086047 10.871574 0 0 7.4277336,20 L 15.54004,19.98633 a 2.386832,2.4086047 10.871574 0 0 2.070313,-1.207031 l 4.067384,-7.091801 a 2.386832,2.4086047 10.871574 0 0 0.0039,-2.4082044 L 17.637697,2.2001902 A 2.386832,2.4086047 10.871574 0 0 16.47754,1.1826119 Z"/>
 <path style="opacity:0.2" d="m 1.0507812,11 a 2.386832,2.4086047 10.871574 0 0 0.2675782,0.720703 l 4.0449218,7.078125 a 2.386832,2.4086047 10.871574 0 0 0.00977,0.01563 c 0.1001127,0.171866 0.2202285,0.328184 0.3554687,0.466797 a 2.386832,2.4086047 10.871574 0 0 0.03125,0.03125 c 0.1387343,0.136988 0.2927216,0.257021 0.4589844,0.355469 a 2.386832,2.4086047 10.871574 0 0 0.041016,0.02344 c 0.1652711,0.09345 0.3414337,0.167108 0.5253906,0.21875 a 2.386832,2.4086047 10.871574 0 0 0.033203,0.0098 c 0.1963577,0.05201 0.4008448,0.08042 0.609375,0.08008 l 8.1132821,-0.01367 c 0.203256,-2.86e-4 0.401769,-0.03004 0.59375,-0.08008 a 2.386832,2.4086047 10.871574 0 0 0.05273,-0.01367 c 0.186924,-0.05337 0.365514,-0.128241 0.533203,-0.224609 a 2.386832,2.4086047 10.871574 0 0 0.03125,-0.01953 c 0.164233,-0.0978 0.317477,-0.214388 0.455078,-0.34961 a 2.386832,2.4086047 10.871574 0 0 0.0293,-0.02734 c 0.139586,-0.141845 0.26236,-0.303816 0.365234,-0.480468 a 2.386832,2.4086047 10.871574 0 0 0.0078,-0.01172 L 21.677734,11.6875 A 2.386832,2.4086047 10.871574 0 0 21.941406,11 L 1.0507812,11 Z"/>
 <path style="opacity:0.2" d="M 11.5,6.4999957 C 7.28125,6.4999957 4,9.9999976 4,11.08203 4,12.499999 7.28125,15.5 11.5,15.5 15.71875,15.5 19,11.999999 19,11.08203 19,9.9999976 15.71875,6.4999957 11.5,6.4999957 Z"/>
 <path style="fill:#ffffff" d="m 11.5,5.9999959 c -4.21875,0 -7.5,3.5000007 -7.5,4.5820331 0,1.417969 3.28125,4.41797 7.5,4.41797 4.21875,0 7.5,-3.500001 7.5,-4.41797 0,-1.0820324 -3.28125,-4.5820331 -7.5,-4.5820331 z"/>
 <circle style="fill:#1b87e6" cx="11.5" cy="10.5" r="3.5"/>
 <circle style="fill:#3f3f3f" cx="11.5" cy="10.5" r="1.5"/>
 <path style="opacity:0.2;fill:#ffffff" d="M 15.572266,0.99999959 7.4589844,1.0136715 A 2.386832,2.4086047 10.871574 0 0 6.3144531,1.3105465 2.386832,2.4086047 10.871574 0 0 5.390625,2.2207027 L 1.3222656,9.3124996 A 2.386832,2.4086047 10.871574 0 0 1.015625,10.773438 2.386832,2.4086047 10.871574 0 1 1.3222656,9.8124996 L 5.390625,2.7207027 A 2.386832,2.4086047 10.871574 0 1 6.3144531,1.8105465 2.386832,2.4086047 10.871574 0 1 7.4589844,1.5136715 l 8.1132816,-0.013672 a 2.386832,2.4086047 10.871574 0 1 2.064453,1.2011719 l 4.044922,7.0781251 A 2.386832,2.4086047 10.871574 0 1 21.984375,10.726562 2.386832,2.4086047 10.871574 0 0 21.681641,9.2792966 L 17.636719,2.2011715 A 2.386832,2.4086047 10.871574 0 0 15.572266,0.99999959 Z"/>
</svg>
